src/assets/compendia/icons/tokens-core/department-operations-rank-2-token.svg

<svg xmlns="http://www.w3.org/2000/svg" xml:space="preserve" style="fill-rule:evenodd;clip-rule:evenodd;stroke-linecap:round;stroke-miterlimit:1.5" viewBox="0 0 256 256"><path d="M0 0h256v256H0z" style="fill:none"/><g><circle cx="128" cy="128" r="128"/><path d="M128 0c70.645 0 128 57.355 128 128s-57.355 128-128 128S0 198.645 0 128 57.355 0 128 0m0 8C61.77 8 8 61.77 8 128s53.77 120 120 120 120-53.77 120-120S194.23 8 128 8" style="fill:#f5d63d"/><path d="M0 20.813s-8.216-2.334-12.151-6.443c-3.935-4.108-2.237-8.697-.502-10.377 2.468-2.392 6.943-3.819 10.184.424 2.918 3.821.346 8.994-3.395 8.102C-8.449 11.901-9.2 9.644-9.2 9.644l-.714.29 2.777 4.918 6.366-1.08.598-10.3L-7.291-.81l-9.201 5.381 1.254 12.307L0 21.623z" style="fill:#f5d63d;fill-rule:nonzero" transform="translate(183.138 58.416)scale(6.68658)"/><circle cx="1928" cy="1439" r="9" style="fill:#f5d63d;stroke:#f5d63d;stroke-width:8px" transform="translate(-1800 -1200)"/></g></svg>

<?xml version="1.0" encoding="UTF-8" standalone="no"?>
<!DOCTYPE svg PUBLIC "-//W3C//DTD SVG 1.1//EN" "http://www.w3.org/Graphics/SVG/1.1/DTD/svg11.dtd">
<svg width="100%" height="100%" viewBox="0 0 256 256" version="1.1" xmlns="http://www.w3.org/2000/svg" xmlns:xlink="http://www.w3.org/1999/xlink" xml:space="preserve" xmlns:serif="http://www.serif.com/" style="fill-rule:evenodd;clip-rule:evenodd;stroke-linecap:round;stroke-miterlimit:1.5;">
    <g transform="matrix(1,0,0,1,-7200,-1500)">
        <g transform="matrix(1,0,0,1,7200,1500)">
            <rect id="department-operations-rank-2-token" x="0" y="0" width="256" height="256" style="fill:none;"/>
            <g id="department-operations-rank-2-token1" serif:id="department-operations-rank-2-token">
                <circle cx="128" cy="128" r="128"/>
                <path d="M128,0C198.645,0 256,57.355 256,128C256,198.645 198.645,256 128,256C57.355,256 0,198.645 0,128C0,57.355 57.355,0 128,0ZM128,8C61.77,8 8,61.77 8,128C8,194.23 61.77,248 128,248C194.23,248 248,194.23 248,128C248,61.77 194.23,8 128,8Z" style="fill:rgb(245,214,61);"/>
                <g transform="matrix(6.68658,0,0,6.68658,183.138,58.4161)">
                    <g id="Operations">
                        <path id="Operations1" serif:id="Operations" d="M0,20.813C0,20.813 -8.216,18.479 -12.151,14.37C-16.086,10.262 -14.388,5.673 -12.653,3.993C-10.185,1.601 -5.71,0.174 -2.469,4.417C0.449,8.238 -2.123,13.411 -5.864,12.519C-8.449,11.901 -9.2,9.644 -9.2,9.644L-9.914,9.934L-7.137,14.852L-0.771,13.772L-0.173,3.472L-7.291,-0.81L-16.492,4.571L-15.238,16.878L0,21.623L0,20.813Z" style="fill:rgb(245,214,61);fill-rule:nonzero;"/>
                    </g>
                </g>
                <g transform="matrix(1,0,0,1,-1800,-1200)">
                    <circle cx="1928" cy="1439" r="9" style="fill:rgb(245,214,61);stroke:rgb(245,214,61);stroke-width:8px;"/>
                </g>
            </g>
        </g>
    </g>
</svg>
